X: 20180
T: Jock Brown's 70th
R: reel
M: 4/4
K: Amixolydian
|:e3 e- efed|cA A/A/A eAcA|g3 g- gfga|f3 f- fefg|
a2 ed e2 ed|cA A/A/A eAcA|GA A/A/A d2 dc|1 GAde dBcd:|2 GAde d2 cd||
|:a2 cd ecde|cdac decd|a2 cd ecde|cdac dgcd|
a2 cd ecde|cdac decA|GA A/A/A d2 dc|1 GAde d2 cd:|2 GAde d2 dc||
|:A2 GA- AGAA|GAAG A2 dc|A2 GA- AGAA|GAde d2 dc|
A2 GA- AGAA|GAAG A2 dc|GAde d3 d-|1 dcde d2 dc:|2 dcde dBcd||

